packages/tokens/icons/coveoDevelopers/size16Px.svg

<svg viewBox="0 0 16 16" fill="none" xmlns="http://www.w3.org/2000/svg" width="1em" height="1em"><path d="M5.41414 6.58593L3.99993 8.00012L5.41415 9.41438" stroke="currentColor" stroke-linecap="round" stroke-linejoin="round"/><path d="M10.5857 9.41413L11.9998 8L10.5856 6.58565" stroke="currentColor" stroke-linecap="round" stroke-linejoin="round"/><path d="M9.16261 5.24316L6.73824 11.6071" stroke="currentColor" stroke-linecap="round"/><path d="M2.21056 6.23201C1.23425 7.20832 1.23425 8.79123 2.21056 9.76754L6.24107 13.7981C7.21738 14.7744 8.80029 14.7744 9.7766 13.7981L13.8071 9.76754C14.7834 8.79123 14.7834 7.20832 13.8071 6.23201L9.7766 2.2015C8.80029 1.22519 7.21738 1.22519 6.24107 2.2015L2.21056 6.23201Z" stroke="currentColor"/></svg>

<svg xmlns="http://www.w3.org/2000/svg" fill="none" viewBox="0 0 16 16" width="1em" height="1em"><path stroke="currentColor" stroke-linecap="round" stroke-linejoin="round" d="M5.414 6.586 4 8l1.414 1.414m5.172 0L12 8l-1.414-1.414"/><path stroke="currentColor" stroke-linecap="round" d="m9.163 5.243-2.425 6.364"/><path stroke="currentColor" d="M2.21 6.232a2.5 2.5 0 0 0 0 3.536l4.031 4.03a2.5 2.5 0 0 0 3.536 0l4.03-4.03a2.5 2.5 0 0 0 0-3.536l-4.03-4.03a2.5 2.5 0 0 0-3.536 0l-4.03 4.03Z"/></svg>
